X: 35a
T: The Ballydesmond #1
M: 2/4
L: 1/8
R: polka
K:Ador
|:"Am"E>A AB|cd eg|"G"G>F GA|GE ED|
|"Am"E>A AB|cd ef|"G"ge dB|"Am"A2 A2:|
|:"Am"a2 ab|ag ef|"G"g2 ga|ge ed|
|"Am"e>a ab|ag ef|"G"ge dB|"Am"A2 A2:|


